www/assets/icons/edit_location_alt.svg

<svg width="24" height="24" viewBox="0 0 24 24" xmlns="http://www.w3.org/2000/svg" fill='currentColor'><path d="M13.4494 13.5H8.49939V8.55L14.1094 2.94C13.2794 2.66 12.3994 2.5 11.4994 2.5C7.29939 2.5 3.49939 5.72 3.49939 10.7C3.49939 14.02 6.16939 17.95 11.4994 22.5C16.8294 17.95 19.4994 14.02 19.4994 10.7C19.4994 9.69 19.3394 8.76 19.0494 7.9L13.4494 13.5Z"/><path d="M10.4994 11.5H12.6194L18.7794 5.34L16.6594 3.22L10.4994 9.38V11.5Z"/><path d="M20.2094 2.5L19.4994 1.79C19.2994 1.6 19.0494 1.5 18.7894 1.5C18.6594 1.5 18.3094 1.57 18.0794 1.79L17.3594 2.51L19.4794 4.63L20.1994 3.91C20.5994 3.52 20.5994 2.89 20.2094 2.5Z"/></svg>

<svg xmlns="http://www.w3.org/2000/svg" width="24" height="24" viewBox="0 0 24 24" fill='currentColor'><path d="M13.45 13.5H8.5V8.55l5.61-5.61a8.2 8.2 0 0 0-2.61-.44c-4.2 0-8 3.22-8 8.2 0 3.32 2.67 7.25 8 11.8 5.33-4.55 8-8.48 8-11.8 0-1.01-.16-1.94-.45-2.8z"/><path d="M10.5 11.5h2.12l6.16-6.16-2.12-2.12-6.16 6.16zm9.71-9-.71-.71c-.2-.19-.45-.29-.71-.29-.13 0-.48.07-.71.29l-.72.72 2.12 2.12.72-.72c.4-.39.4-1.02.01-1.41"/></svg>
